packages/core/src/svgs/wcfg.svg

<svg width="24" height="24" viewBox="0 0 24 24" fill="none" xmlns="http://www.w3.org/2000/svg">
<g clip-path="url(#clip0_31_20662)">
<path d="M0 0H24V24H0V0Z" fill="url(#paint0_linear_31_20662)"/>
<path d="M5.57138 12.8616C5.57138 14.0316 5.8671 15.133 6.38567 16.1016L5.61424 16.4873C4.70853 14.7925 4.46721 12.8209 4.93742 10.9577C5.40763 9.09444 6.55559 7.47344 8.15705 6.41134C9.75851 5.34923 11.6984 4.92233 13.5978 5.21403C15.4972 5.50572 17.2196 6.49505 18.4285 7.98876L17.7771 8.54591C16.8849 7.44188 15.6725 6.64153 14.3067 6.25501C12.9408 5.86848 11.4888 5.91479 10.1504 6.38756C8.81197 6.86033 7.653 7.73631 6.83297 8.89494C6.01295 10.0536 5.5722 11.4379 5.57138 12.8573V12.8616ZM12.2228 17.5716C11.433 17.5365 10.6647 17.3033 9.98864 16.8935C9.31256 16.4838 8.75038 15.9105 8.35384 15.2266C7.9573 14.5427 7.73912 13.77 7.71939 12.9796C7.69966 12.1893 7.879 11.4067 8.24092 10.7038C8.60284 10.001 9.13571 9.4004 9.79051 8.95739C10.4453 8.51438 11.201 8.24315 11.9881 8.16867C12.7751 8.09419 13.5683 8.21883 14.2945 8.53115C15.0208 8.84346 15.6569 9.3334 16.1442 9.95591L16.7914 9.39876C16.2105 8.66647 15.4548 8.09208 14.5937 7.72848C13.7327 7.36487 12.794 7.22374 11.8641 7.31807C10.9342 7.4124 10.0429 7.73917 9.27244 8.26828C8.50194 8.7974 7.87694 9.51185 7.45499 10.3459C7.03303 11.1799 6.82768 12.1067 6.85784 13.0408C6.88801 13.975 7.15271 14.8866 7.62759 15.6917C8.10247 16.4968 8.77225 17.1694 9.57528 17.6477C10.3783 18.126 11.2888 18.3946 12.2228 18.4288V17.5673V17.5716ZM14.2928 14.6273C13.9408 15.0042 13.4832 15.2661 12.98 15.3788C12.4767 15.4915 11.9512 15.4498 11.4721 15.2591C10.9929 15.0683 10.5824 14.7375 10.2943 14.3097C10.0062 13.882 9.85382 13.3773 9.8571 12.8616C9.85605 12.3146 10.0294 11.7816 10.3521 11.3399C10.6747 10.8982 11.1298 10.5709 11.6512 10.4056C12.1726 10.2402 12.7331 10.2454 13.2513 10.4204C13.7695 10.5954 14.2184 10.9312 14.5328 11.3788L15.1842 10.8216C14.7566 10.2394 14.1559 9.80723 13.4678 9.58707C12.7798 9.36691 12.0397 9.36998 11.3536 9.59586C10.6674 9.82174 10.0702 10.2588 9.64746 10.8446C9.22473 11.4304 8.99808 12.1349 8.99996 12.8573C9.0001 13.5299 9.19806 14.1876 9.5692 14.7485C9.94034 15.3094 10.4683 15.7488 11.0872 16.0119C11.7062 16.275 12.3889 16.3503 13.0503 16.2283C13.7118 16.1063 14.3227 15.7925 14.8071 15.3259L14.2928 14.623V14.6273Z" fill="white"/>
</g>
<defs>
<linearGradient id="paint0_linear_31_20662" x1="4.46571" y1="4.16143" x2="29.2071" y2="32.58" gradientUnits="userSpaceOnUse">
<stop stop-color="#1A1E21"/>
<stop offset="1" stop-color="#06060A"/>
</linearGradient>
<clipPath id="clip0_31_20662">
<rect width="24" height="24" fill="white"/>
</clipPath>
</defs>
</svg>

<svg xmlns="http://www.w3.org/2000/svg" width="24" height="24" fill="none" viewBox="0 0 24 24"><g clip-path="url(#a)"><path fill="url(#b)" d="M0 0h24v24H0z"/><path fill="#fff" d="M5.571 12.862c0 1.17.296 2.271.815 3.24l-.772.385A7.723 7.723 0 0 1 18.43 7.99l-.652.557a6.866 6.866 0 0 0-12.206 4.311zm6.652 4.71a4.714 4.714 0 1 1 3.921-7.616l.647-.557a5.572 5.572 0 1 0-4.568 9.03v-.862zm2.07-2.945a2.563 2.563 0 0 1-4.436-1.765 2.57 2.57 0 0 1 4.676-1.483l.651-.557A3.424 3.424 0 0 0 9 12.857a3.428 3.428 0 0 0 5.807 2.469l-.514-.703z"/></g><defs><linearGradient id="b" x1="4.466" x2="29.207" y1="4.161" y2="32.58" gradientUnits="userSpaceOnUse"><stop stop-color="#1A1E21"/><stop offset="1" stop-color="#06060A"/></linearGradient><clipPath id="a"><path fill="#fff" d="M0 0h24v24H0z"/></clipPath></defs></svg>
